packages/foundations/assets/icons/functional/images/transportation/bike.svg

<svg xmlns="http://www.w3.org/2000/svg" width="32" height="32" fill="none"><path fill="#1A1C1F" fill-rule="evenodd" d="M21.701 7.248c-1.164.268-1.39.359-1.578.639-.229.339-.217.558.082 1.514.149.476.253.881.233.9-.062.057-6.787 1.603-6.857 1.576-.052-.02-.621-1.729-.621-1.865 0-.021.27-.039.6-.04.667-.001.911-.074 1.17-.352a1 1 0 0 0 .185-1.049c-.087-.207-.408-.5-.609-.557-.19-.053-4.422-.053-4.612 0-.201.057-.522.35-.609.557a.99.99 0 0 0 .185 1.047c.249.263.422.323 1.016.354l.553.028.446 1.409c.251.792.427 1.434.403 1.467-.171.228-1.514 1.844-1.533 1.844-.014 0-.167-.072-.341-.16-1.029-.519-2.573-.648-3.786-.316-1.486.406-2.838 1.546-3.497 2.946-1.445 3.071.195 6.686 3.462 7.633a5.37 5.37 0 0 0 3.018-.003c2.209-.633 3.796-2.589 3.976-4.9.094-1.201-.317-2.639-1.024-3.584-.126-.169-.224-.323-.217-.342s.175-.231.371-.471l.357-.437.807 2.461c1.027 3.132.943 3.02 2.217 2.977.558-.019.668-.039.902-.162.147-.076.341-.219.432-.317s1.05-1.486 2.13-3.085a872 872 0 0 1 2.217-3.269l.253-.363.145.469.213.691.069.222-.33.214c-1.193.776-1.991 1.889-2.367 3.303-.119.449-.138.628-.138 1.32 0 .691.019.87.138 1.317a5.45 5.45 0 0 0 1.387 2.478 5.42 5.42 0 0 0 5.458 1.481 5.5 5.5 0 0 0 3.774-3.764c.748-2.599-.509-5.347-2.976-6.503-.797-.373-1.789-.559-2.64-.494l-.405.031-.742-2.393a660 660 0 0 0-.764-2.455c-.013-.039.169-.104.502-.179.869-.196 1.11-.344 1.277-.781.245-.643-.241-1.305-.951-1.294-.155.002-.776.118-1.381.257m-4.132 8.19c-1.047 1.544-1.923 2.789-1.945 2.765-.052-.055-1.454-4.338-1.428-4.363.026-.027 5.24-1.238 5.261-1.223.009.007-.84 1.276-1.888 2.821m-9.089.749c.161.049.31.105.331.125.021.019-.441.618-1.025 1.331-1.124 1.369-1.215 1.523-1.145 1.935.103.608.761.99 1.331.772.272-.104.295-.129 1.492-1.592.498-.607.923-1.105.946-1.105.055 0 .298.484.428.852.147.419.183 1.249.075 1.762-.213 1.008-.945 1.954-1.856 2.395-1.048.507-2.13.497-3.175-.028s-1.78-1.658-1.866-2.876a3.53 3.53 0 0 1 .371-1.785c.434-.886 1.368-1.623 2.333-1.84.436-.098 1.351-.07 1.76.054m16.773-.054c1.315.275 2.402 1.392 2.671 2.745.297 1.49-.469 3.084-1.806 3.756-1.045.525-2.127.535-3.175.028-.901-.437-1.645-1.388-1.85-2.369a3.53 3.53 0 0 1 1.142-3.406c.132-.114.247-.186.255-.16l.495 1.592c.264.851.524 1.607.579 1.68a.994.994 0 0 0 1.509.114c.219-.219.342-.57.29-.829-.024-.123-.818-2.727-.964-3.164-.031-.092.38-.086.854.013"/></svg>

<svg width="32" height="32" viewBox="0 0 32 32" fill="none" xmlns="http://www.w3.org/2000/svg"><path d="M21.701 7.248 C 20.537 7.516,20.311 7.607,20.123 7.887 C 19.894 8.226,19.906 8.445,20.205 9.401 C 20.354 9.877,20.458 10.282,20.438 10.301 C 20.376 10.358,13.651 11.904,13.581 11.877 C 13.529 11.857,12.960 10.148,12.960 10.012 C 12.960 9.991,13.230 9.973,13.560 9.972 C 14.227 9.971,14.471 9.898,14.730 9.620 C 14.988 9.343,15.062 8.924,14.915 8.571 C 14.828 8.364,14.507 8.071,14.306 8.014 C 14.116 7.961,9.884 7.961,9.694 8.014 C 9.493 8.071,9.172 8.364,9.085 8.571 C 8.938 8.924,9.012 9.345,9.270 9.618 C 9.519 9.881,9.692 9.941,10.286 9.972 L 10.839 10.000 11.285 11.409 C 11.536 12.201,11.712 12.843,11.688 12.876 C 11.517 13.104,10.174 14.720,10.155 14.720 C 10.141 14.720,9.988 14.648,9.814 14.560 C 8.785 14.041,7.241 13.912,6.028 14.244 C 4.542 14.650,3.190 15.790,2.531 17.190 C 1.086 20.261,2.726 23.876,5.993 24.823 C 6.985 25.111,7.999 25.109,9.011 24.820 C 11.220 24.187,12.807 22.231,12.987 19.920 C 13.081 18.719,12.670 17.281,11.963 16.336 C 11.837 16.167,11.739 16.013,11.746 15.994 C 11.754 15.975,11.921 15.763,12.117 15.523 L 12.474 15.086 13.281 17.547 C 14.308 20.679,14.224 20.567,15.498 20.524 C 16.056 20.505,16.166 20.485,16.400 20.362 C 16.547 20.286,16.741 20.143,16.832 20.045 C 16.923 19.947,17.882 18.559,18.962 16.960 C 20.043 15.361,21.041 13.890,21.179 13.691 L 21.432 13.328 21.577 13.797 C 21.656 14.055,21.753 14.366,21.790 14.488 L 21.859 14.710 21.529 14.924 C 20.336 15.700,19.538 16.813,19.162 18.227 C 19.043 18.676,19.024 18.855,19.024 19.547 C 19.024 20.238,19.043 20.417,19.162 20.864 C 19.422 21.842,19.856 22.618,20.549 23.342 C 21.970 24.827,24.047 25.391,26.007 24.823 C 27.840 24.292,29.256 22.879,29.781 21.059 C 30.529 18.460,29.272 15.712,26.805 14.556 C 26.008 14.183,25.016 13.997,24.165 14.062 L 23.760 14.093 23.018 11.700 C 22.610 10.384,22.266 9.279,22.254 9.245 C 22.241 9.206,22.423 9.141,22.756 9.066 C 23.625 8.870,23.866 8.722,24.033 8.285 C 24.278 7.642,23.792 6.980,23.082 6.991 C 22.927 6.993,22.306 7.109,21.701 7.248 M17.569 15.438 C 16.522 16.982,15.646 18.227,15.624 18.203 C 15.572 18.148,14.170 13.865,14.196 13.840 C 14.222 13.813,19.436 12.602,19.457 12.617 C 19.466 12.624,18.617 13.893,17.569 15.438 M8.480 16.187 C 8.641 16.236,8.790 16.292,8.811 16.312 C 8.832 16.331,8.370 16.930,7.786 17.643 C 6.662 19.012,6.571 19.166,6.641 19.578 C 6.744 20.186,7.402 20.568,7.972 20.350 C 8.244 20.246,8.267 20.221,9.464 18.758 C 9.962 18.151,10.387 17.653,10.410 17.653 C 10.465 17.653,10.708 18.137,10.838 18.505 C 10.985 18.924,11.021 19.754,10.913 20.267 C 10.700 21.275,9.968 22.221,9.057 22.662 C 8.009 23.169,6.927 23.159,5.882 22.634 C 4.837 22.109,4.102 20.976,4.016 19.758 C 3.975 19.172,4.103 18.555,4.387 17.973 C 4.821 17.087,5.755 16.350,6.720 16.133 C 7.156 16.035,8.071 16.063,8.480 16.187 M25.253 16.133 C 26.568 16.408,27.655 17.525,27.924 18.878 C 28.221 20.368,27.455 21.962,26.118 22.634 C 25.073 23.159,23.991 23.169,22.943 22.662 C 22.042 22.225,21.298 21.274,21.093 20.293 C 20.828 19.023,21.265 17.719,22.235 16.887 C 22.367 16.773,22.482 16.701,22.490 16.727 C 22.498 16.752,22.721 17.469,22.985 18.319 C 23.249 19.170,23.509 19.926,23.564 19.999 C 23.930 20.494,24.639 20.547,25.073 20.113 C 25.292 19.894,25.415 19.543,25.363 19.284 C 25.339 19.161,24.545 16.557,24.399 16.120 C 24.368 16.028,24.779 16.034,25.253 16.133 " fill="#1A1C1F" stroke="none" fill-rule="evenodd"></path></svg>
